img/subcontractor.svg

<svg width="48" height="48" viewBox="0 0 48 48" fill="none" xmlns="http://www.w3.org/2000/svg">
<g clip-path="url(#clip0)">
<path d="M46.967 22.2528C50.602 35.3748 44.314 47.9998 33.295 47.9998C27.198 47.9998 24.595 44.4958 17.898 36.3368C11.2 28.1778 1.65 39.5218 0 22.2528C1.386 6.33979 18.652 -8.06421 26.668 5.22579C33.966 17.3258 43.333 9.13079 46.968 22.2528H46.967Z" fill="#FFDD76"/>
<path d="M23.493 15.5152H23.494C23.5535 15.4962 23.6175 15.4962 23.677 15.5152L34.313 18.9032L34.35 18.9152L34.389 18.9212C34.4653 18.9334 34.5345 18.9728 34.584 19.0322C34.6393 19.0985 34.67 19.1818 34.671 19.2682V19.2822L34.672 19.2972V28.3772L34.915 28.5232C35.262 28.7332 35.5 29.1192 35.5 29.5712C35.5 29.6982 35.435 29.9502 35.281 30.3112C35.136 30.6542 34.939 31.0352 34.736 31.3962C34.601 31.6382 34.466 31.8672 34.345 32.0652C34.225 31.8672 34.089 31.6382 33.953 31.3972C33.7525 31.0449 33.5706 30.6824 33.408 30.3112C33.255 29.9502 33.19 29.6982 33.19 29.5712C33.19 29.1192 33.428 28.7322 33.775 28.5232L34.017 28.3772V19.7622L33.365 19.9692L23.678 23.0562C23.6182 23.0753 23.5538 23.0753 23.494 23.0562L12.735 19.6282C12.6678 19.6057 12.6096 19.5623 12.569 19.5042C12.5238 19.4403 12.4995 19.3639 12.4995 19.2857C12.4995 19.2074 12.5238 19.131 12.569 19.0672C12.6096 19.0091 12.6678 18.9656 12.735 18.9432L23.493 15.5152ZM17.464 28.2452V23.9792L22.702 25.6482C23.2766 25.8324 23.8944 25.8324 24.469 25.6482L29.707 23.9792V28.2452L29.582 28.2572C29.2 28.3002 28.659 28.3842 28.012 28.5522C26.796 28.8662 25.202 29.4772 23.586 30.6592C22.2567 29.6835 20.7545 28.9686 19.159 28.5522C18.6026 28.4068 18.036 28.3042 17.464 28.2452Z" fill="#63522B" stroke="#63522B"/>
</g>
<defs>
<clipPath id="clip0">
<rect width="48" height="48" fill="white"/>
</clipPath>
</defs>
</svg>

<svg width="48" height="48" fill="none" xmlns="http://www.w3.org/2000/svg"><g clip-path="url(#clip0)"><path d="M46.967 22.253C50.602 35.375 44.314 48 33.295 48c-6.097 0-8.7-3.504-15.397-11.663C11.2 28.177 1.65 39.522 0 22.253 1.386 6.34 18.652-8.064 26.668 5.226c7.298 12.1 16.665 3.905 20.3 17.027h-.001z" fill="#FFDD76"/><path d="M23.493 15.515h.001a.3.3 0 01.183 0l10.636 3.388.037.012.039.006a.32.32 0 01.195.111c.055.067.086.15.087.236v.014l.001.015v9.08l.243.146c.347.21.585.596.585 1.048 0 .127-.065.38-.219.74-.145.343-.342.724-.545 1.085-.135.242-.27.471-.391.67-.12-.199-.256-.428-.392-.669-.2-.352-.382-.715-.545-1.086-.153-.36-.218-.613-.218-.74 0-.452.238-.839.585-1.048l.242-.146v-8.615l-.652.207-9.687 3.087a.303.303 0 01-.184 0l-10.759-3.428a.33.33 0 01-.166-.124.379.379 0 010-.437.33.33 0 01.166-.124l10.758-3.428zm-6.029 12.73V23.98l5.238 1.67a2.894 2.894 0 001.767 0l5.238-1.67v4.266l-.125.012c-.382.043-.923.127-1.57.295-1.216.314-2.81.925-4.426 2.107a13.052 13.052 0 00-4.427-2.107 11.282 11.282 0 00-1.695-.307z" fill="#63522B" stroke="#63522B"/></g><defs><clipPath id="clip0"><path fill="#fff" d="M0 0h48v48H0z"/></clipPath></defs></svg>
